dhis-2/dhis-support/dhis-support-system/src/main/resources/SVGs/pregnant_0812w_positive.svg

<svg width="48" height="48" viewBox="0 0 48 48" fill="none" xmlns="http://www.w3.org/2000/svg">
<path fill-rule="evenodd" clip-rule="evenodd" d="M23.9997 4.00977C20.2144 4.00977 16.584 5.5135 13.9073 8.19018C11.2307 10.8669 9.72693 14.4972 9.72693 18.2826C9.7268 20.157 10.0959 22.0131 10.8131 23.7449C11.5303 25.4766 12.5816 27.0502 13.907 28.3756C15.2324 29.7011 16.8058 30.7525 18.5375 31.4699C20.2693 32.1872 22.1253 32.5564 23.9997 32.5564C25.8742 32.5564 27.7302 32.1872 29.462 31.4699C31.1937 30.7525 32.7671 29.7011 34.0925 28.3756C35.4179 27.0502 36.4692 25.4766 37.1864 23.7449C37.9036 22.0131 38.2727 20.157 38.2726 18.2826C38.2726 14.4972 36.7688 10.8669 34.0922 8.19018C31.4155 5.5135 27.7851 4.00977 23.9997 4.00977ZM23.9997 5.96874C27.2655 5.96901 30.3974 7.26644 32.7067 9.57568C35.0159 11.8849 36.3133 15.0168 36.3136 18.2826C36.3136 21.5485 35.0163 24.6807 32.707 26.9901C30.3978 29.2996 27.2657 30.5972 23.9997 30.5974C20.7338 30.5972 17.6018 29.2996 15.2925 26.9901C12.9832 24.6807 11.6859 21.5485 11.6859 18.2826C11.6862 15.0168 12.9836 11.8849 15.2928 9.57568C17.6021 7.26644 20.734 5.96901 23.9997 5.96874ZM22.9118 6.66983C22.7258 6.67113 22.5338 6.77423 22.4468 7.02333C22.1308 7.72532 21.5868 8.21901 21.3478 9.2128C21.0438 10.6449 23.5008 10.7669 24.2677 10.7639C26.4807 10.8449 27.2777 12.2229 25.0037 12.4279C23.1168 12.6049 21.1758 12.6519 20.7948 16.5348C20.7458 17.1028 21.0078 18.1108 21.4648 19.3928C21.6158 20.2328 21.3658 21.2008 20.8628 22.2497C20.6068 22.2197 20.4178 22.1277 20.3708 21.9157C20.4148 21.0108 20.5978 20.2458 20.2378 18.9358C19.8838 17.6648 19.0178 17.0598 18.1388 16.9038C16.3758 16.5378 14.8119 16.2068 13.3999 16.6758C11.9119 17.2338 12.3879 19.4388 13.6679 19.4668L15.2359 19.5098C16.3228 19.5318 16.9118 20.0098 16.3478 21.5367L15.5819 23.7577C14.9559 25.6687 17.0628 27.7587 19.8238 27.9997C22.6158 27.9347 24.2287 26.6877 26.4037 26.0077C28.4887 24.8537 28.1027 24.0347 28.0957 23.3007C27.7487 22.2827 27.7017 21.9127 26.9467 20.7598C26.6517 20.4478 26.5147 20.3608 26.1247 20.1018C25.1757 19.0508 26.7137 18.3838 27.8727 17.0098C28.4747 16.1558 27.4547 15.1538 26.2707 15.5018C25.2717 15.8278 24.7477 16.4368 23.7298 17.4898C23.1498 18.1288 22.3648 19.6228 23.4408 20.8828C23.7418 21.4617 23.3358 21.7367 22.3088 22.0657C21.9718 22.1497 21.7298 22.1667 21.4648 22.2007C21.9988 21.3107 22.1308 20.4018 22.0118 19.4818C21.7838 18.5148 21.3878 17.5888 21.3708 16.5678C21.6978 12.6589 24.0447 13.1969 25.9017 12.8959C26.7837 12.8659 28.6767 10.7699 24.6187 10.0329C23.3458 9.80479 22.0878 9.89859 22.3028 9.0604C22.4858 8.33061 22.9808 7.87322 23.3008 7.30852C23.5178 6.94903 23.2218 6.66773 22.9118 6.66983ZM31.8297 16.5898V16.5918C30.9297 16.5918 30.0317 16.9358 29.3457 17.6228C27.9737 18.9958 27.9717 21.2258 29.3457 22.5977C30.7187 23.9697 32.9476 23.9647 34.3196 22.5897C35.6916 21.2158 35.6876 18.9868 34.3136 17.6148C33.6276 16.9288 32.7296 16.5888 31.8297 16.5898ZM4 33.9996V43.9995H43.9995V33.9996H4ZM7.86715 35.0956C8.69524 35.0956 9.32913 35.3696 9.76753 35.9156C10.2059 36.4586 10.4289 37.2395 10.4389 38.2595V39.6575C10.4389 40.7085 10.2219 41.5115 9.78703 42.0675C9.35213 42.6245 8.71544 42.9035 7.87695 42.9035C7.04876 42.9035 6.41687 42.6295 5.97848 42.0835C5.54008 41.5375 5.31508 40.7555 5.30468 39.7355V38.3375C5.30468 37.2766 5.52448 36.4696 5.96288 35.9196C6.40477 35.3696 7.03906 35.0956 7.86715 35.0956ZM14.0099 35.0956C14.7469 35.0956 15.3319 35.2866 15.7639 35.6696C16.1988 36.0486 16.4158 36.5666 16.4158 37.2206C16.4158 37.5895 16.3248 37.9155 16.1408 38.2005C15.9559 38.4855 15.7009 38.7135 15.3769 38.8845C15.7459 39.0615 16.0378 39.3075 16.2538 39.6205C16.4698 39.9305 16.5778 40.2955 16.5778 40.7165C16.5778 41.3915 16.3478 41.9265 15.8889 42.3195C15.4289 42.7095 14.8049 42.9035 14.0159 42.9035C13.2259 42.9035 12.5989 42.7075 12.1369 42.3135C11.6739 41.9205 11.4409 41.3875 11.4409 40.7165C11.4409 40.2955 11.5499 39.9275 11.7659 39.6145C11.9809 39.3015 12.2709 39.0585 12.6369 38.8845C12.3129 38.7135 12.0589 38.4855 11.8749 38.2005C11.6939 37.9155 11.6039 37.5895 11.6039 37.2206C11.6039 36.5736 11.8199 36.0586 12.2519 35.6756C12.6829 35.2896 13.2689 35.0956 14.0099 35.0956ZM30.3827 35.0956C31.1657 35.0956 31.7737 35.2836 32.2046 35.6596C32.6396 36.0356 32.8566 36.5656 32.8566 37.2515C32.8566 37.6275 32.7586 38.0105 32.5636 38.3995C32.3696 38.7895 32.0356 39.2425 31.5617 39.7615L29.8357 41.5835H33.1016V42.7985H27.8947V41.7655L30.3517 39.1455C30.6887 38.7775 30.9377 38.4545 31.0977 38.1795C31.2607 37.9045 31.3437 37.6445 31.3437 37.3975C31.3437 37.0606 31.2577 36.7946 31.0877 36.6036C30.9167 36.4086 30.6737 36.3116 30.3567 36.3116C30.0157 36.3116 29.7467 36.4306 29.5487 36.6676C29.3537 36.9006 29.2557 37.2066 29.2557 37.5895H27.7417C27.7417 37.1266 27.8507 36.7046 28.0697 36.3216C28.2927 35.9396 28.6057 35.6416 29.0097 35.4256C29.4127 35.2066 29.8707 35.0956 30.3827 35.0956ZM25.2577 35.1886H25.4197V42.7985H23.9118V36.9856L22.1108 37.5425V36.3156L25.2577 35.1886ZM33.6966 35.2006H35.2576L36.2866 40.5975L37.5386 35.2006H38.8646L40.1105 40.6065L41.1345 35.2006H42.6945L41.0095 42.7985H39.4336L38.1966 37.7165L36.9586 42.7985H35.3826L33.6966 35.2006ZM14.0099 36.3116C13.7279 36.3116 13.5099 36.3976 13.3539 36.5716C13.1969 36.7456 13.1169 36.9866 13.1169 37.2925C13.1169 37.5955 13.1969 37.8385 13.3539 38.0225C13.5099 38.2075 13.7299 38.3005 14.0159 38.3005C14.3009 38.3005 14.5209 38.2075 14.6739 38.0225C14.8299 37.8385 14.9079 37.5955 14.9079 37.2925C14.9079 36.9966 14.8299 36.7606 14.6739 36.5836C14.5169 36.4026 14.2949 36.3116 14.0099 36.3116ZM7.86715 36.3156C7.51226 36.3156 7.24856 36.4556 7.07806 36.7296C6.91106 37.0016 6.82286 37.4265 6.81246 38.0075V39.8545C6.81246 40.4745 6.89546 40.9355 7.06246 41.2375C7.23296 41.5375 7.50456 41.6875 7.87695 41.6875C8.24575 41.6875 8.51214 41.5425 8.67574 41.2535C8.83924 40.9645 8.92464 40.5245 8.93154 39.9295V38.1225C8.93154 37.4925 8.84384 37.0346 8.66984 36.7496C8.49934 36.4606 8.23245 36.3156 7.86715 36.3156ZM17.6578 38.9375H20.5978V40.1535H17.6578V38.9375ZM14.0059 39.5175C13.6859 39.5175 13.4299 39.6155 13.2379 39.8135C13.0469 40.0085 12.9509 40.2725 12.9509 40.6065C12.9509 40.9305 13.0449 41.1915 13.2319 41.3905C13.4199 41.5885 13.6819 41.6875 14.0159 41.6875C14.3429 41.6875 14.5989 41.5915 14.7829 41.3995C14.9709 41.2085 15.0639 40.9445 15.0639 40.6065C15.0639 40.2765 14.9689 40.0125 14.7769 39.8135C14.5859 39.6155 14.3289 39.5175 14.0059 39.5175Z" fill="#333333"/>
</svg>

<?xml version="1.0" encoding="UTF-8" standalone="no"?>
<!-- Created with Inkscape (http://www.inkscape.org/) -->
<svg id="svg8" xmlns:rdf="http://www.w3.org/1999/02/22-rdf-syntax-ns#" xmlns="http://www.w3.org/2000/svg" xmlns:osb="http://www.openswatchbook.org/uri/2009/osb" height="48" width="48" version="1.1" xmlns:cc="http://creativecommons.org/ns#" viewBox="0 0 12.7 12.7" xmlns:dc="http://purl.org/dc/elements/1.1/">
 <title id="title4753">UIO-icon</title>
 <metadata id="metadata5">
  <rdf:RDF>
   <cc:Work rdf:about="">
    <dc:format>image/svg+xml</dc:format>
    <dc:type rdf:resource="http://purl.org/dc/dcmitype/StillImage"/>
    <dc:title>UIO-icon</dc:title>
    <dc:creator>
     <cc:Agent>
      <dc:title>Joaquín Urbano</dc:title>
     </cc:Agent>
    </dc:creator>
    <dc:rights>
     <cc:Agent>
      <dc:title>GPL</dc:title>
     </cc:Agent>
    </dc:rights>
   </cc:Work>
  </rdf:RDF>
 </metadata>
 <g id="layer1" transform="translate(0,-284.3)">
  <path id="circle5040" d="m24 4.0098a14.273 14.273 0 0 0 -14.273 14.273 14.273 14.273 0 0 0 14.273 14.274 14.273 14.273 0 0 0 14.273 -14.274 14.273 14.273 0 0 0 -14.273 -14.273zm0 1.959a12.315 12.315 0 0 1 12.314 12.314 12.315 12.315 0 0 1 -12.314 12.315 12.315 12.315 0 0 1 -12.314 -12.315 12.315 12.315 0 0 1 12.314 -12.314zm-1.088 0.7011c-0.186 0.0013-0.378 0.1044-0.465 0.3535-0.316 0.702-0.86 1.1957-1.099 2.1895-0.304 1.4321 2.153 1.5541 2.92 1.5511 2.213 0.081 3.01 1.459 0.736 1.664-1.887 0.177-3.828 0.224-4.209 4.107-0.049 0.568 0.213 1.576 0.67 2.858 0.151 0.84-0.099 1.808-0.602 2.857-0.256-0.03-0.445-0.122-0.492-0.334 0.044-0.905 0.227-1.67-0.133-2.98-0.354-1.271-1.22-1.876-2.099-2.032-1.763-0.366-3.327-0.697-4.739-0.228-1.488 0.558-1.012 2.763 0.268 2.791l1.568 0.043c1.087 0.022 1.676 0.5 1.112 2.027l-0.766 2.221c-0.626 1.911 1.481 4.001 4.242 4.242 2.792-0.065 4.405-1.312 6.58-1.992 2.085-1.154 1.699-1.973 1.692-2.707-0.347-1.018-0.394-1.388-1.149-2.541-0.295-0.312-0.432-0.399-0.822-0.658-0.949-1.051 0.589-1.718 1.748-3.092 0.602-0.854-0.418-1.856-1.602-1.508-0.999 0.326-1.523 0.935-2.541 1.988-0.58 0.639-1.365 2.133-0.289 3.393 0.301 0.579-0.105 0.854-1.132 1.183-0.337 0.084-0.579 0.101-0.844 0.135 0.534-0.89 0.666-1.799 0.547-2.719-0.228-0.967-0.624-1.893-0.641-2.914 0.327-3.909 2.674-3.371 4.531-3.672 0.882-0.03 2.775-2.126-1.283-2.863-1.273-0.2281-2.531-0.1343-2.316-0.9725 0.183-0.7298 0.678-1.1872 0.998-1.7519 0.217-0.3595-0.079-0.6408-0.389-0.6387zm8.918 9.9201v0.002c-0.9 0-1.798 0.344-2.484 1.031-1.372 1.373-1.374 3.603 0 4.975 1.373 1.372 3.602 1.367 4.974-0.008 1.372-1.374 1.368-3.603-0.006-4.975-0.686-0.686-1.584-1.026-2.484-1.025zm-27.83 17.41v10h40v-10h-40zm3.8672 1.096c0.8281 0 1.462 0.274 1.9004 0.82 0.4384 0.543 0.6614 1.324 0.6714 2.344v1.398c0 1.051-0.217 1.854-0.6519 2.41-0.4349 0.557-1.0716 0.836-1.9101 0.836-0.8282 0-1.4601-0.274-1.8985-0.82s-0.6634-1.328-0.6738-2.348v-1.398c0-1.061 0.2198-1.868 0.6582-2.418 0.4419-0.55 1.0762-0.824 1.9043-0.824zm6.1428 0c0.737 0 1.322 0.191 1.754 0.574 0.435 0.379 0.652 0.897 0.652 1.551 0 0.369-0.091 0.695-0.275 0.98-0.185 0.285-0.44 0.513-0.764 0.684 0.369 0.177 0.661 0.423 0.877 0.736 0.216 0.31 0.324 0.675 0.324 1.096 0 0.675-0.23 1.21-0.689 1.603-0.46 0.39-1.084 0.584-1.873 0.584-0.79 0-1.417-0.196-1.879-0.59-0.463-0.393-0.696-0.926-0.696-1.597 0-0.421 0.109-0.789 0.325-1.102 0.215-0.313 0.505-0.556 0.871-0.73-0.324-0.171-0.578-0.399-0.762-0.684-0.181-0.285-0.271-0.611-0.271-0.98 0-0.647 0.216-1.162 0.648-1.545 0.431-0.386 1.017-0.58 1.758-0.58zm16.373 0c0.783 0 1.391 0.188 1.822 0.564 0.435 0.376 0.652 0.906 0.652 1.592 0 0.376-0.098 0.759-0.293 1.148-0.194 0.39-0.528 0.843-1.002 1.362l-1.726 1.822h3.266v1.215h-5.207v-1.033l2.457-2.62c0.337-0.368 0.586-0.691 0.746-0.966 0.163-0.275 0.246-0.535 0.246-0.782 0-0.337-0.086-0.603-0.256-0.794-0.171-0.195-0.414-0.292-0.731-0.292-0.341 0-0.61 0.119-0.808 0.356-0.195 0.233-0.293 0.539-0.293 0.922h-1.514c0-0.463 0.109-0.885 0.328-1.268 0.223-0.382 0.536-0.68 0.94-0.896 0.403-0.219 0.861-0.33 1.373-0.33zm-5.125 0.093h0.162v7.61h-1.508v-5.813l-1.801 0.557v-1.227l3.147-1.127zm8.439 0.012h1.561l1.029 5.397 1.252-5.397h1.326l1.246 5.406 1.024-5.406h1.56l-1.685 7.598h-1.576l-1.237-5.082-1.238 5.082h-1.576l-1.686-7.598zm-19.687 1.111c-0.282 0-0.5 0.086-0.656 0.26-0.157 0.174-0.237 0.415-0.237 0.721 0 0.303 0.08 0.546 0.237 0.73 0.156 0.185 0.376 0.278 0.662 0.278 0.285 0 0.505-0.093 0.658-0.278 0.156-0.184 0.234-0.427 0.234-0.73 0-0.296-0.078-0.532-0.234-0.709-0.157-0.181-0.379-0.272-0.664-0.272zm-6.1428 0.004c-0.3549 0-0.6186 0.14-0.7891 0.414-0.167 0.272-0.2552 0.697-0.2656 1.278v1.847c0 0.62 0.083 1.081 0.25 1.383 0.1705 0.3 0.4421 0.45 0.8145 0.45 0.3688 0 0.6352-0.145 0.7988-0.434 0.1635-0.289 0.2489-0.729 0.2558-1.324v-1.807c0-0.63-0.0877-1.088-0.2617-1.373-0.1705-0.289-0.4374-0.434-0.8027-0.434zm9.7908 2.622h2.94v1.216h-2.94v-1.216zm-3.652 0.58c-0.32 0-0.576 0.098-0.768 0.296-0.191 0.195-0.287 0.459-0.287 0.793 0 0.324 0.094 0.585 0.281 0.784 0.188 0.198 0.45 0.297 0.784 0.297 0.327 0 0.583-0.096 0.767-0.288 0.188-0.191 0.281-0.455 0.281-0.793 0-0.33-0.095-0.594-0.287-0.793-0.191-0.198-0.448-0.296-0.771-0.296z" fill-rule="evenodd" transform="matrix(.26458 0 0 .26458 0 284.3)" fill="#333"/>
 </g>
</svg>
